X: 371
T:Scaramella
N: Derived from Jos2830-Scaramella.krn
C: Josquin des Prez
%%abc-version 2.0
%%abcx-abcm2ps-target-version 5.9.1 (29 Sep 2008)
%%abc-creator hum2abc beta
%%abcx-conversion-date 2019/02/12 16:15:54
%%abc-edited-by Jesse Rodin
%%abc-edited-by Will Watson 18/08/2011
%%abcx-initial-encoding-date 2011/08/18/
%%humdrum-veritas 1254296269
%%humdrum-veritas-data 1345817620
%%linebreak <none>
%%barnumbers 0
L: 1/4
M: 3/1
Q: 1/2=120
%%staves [1 2 3 4]
V: 1 clef=treble
V: 2 clef=treble-8
V: 3 clef=treble-8
V: 4 clef=bass
K: C
[V:1] F8G4 | 
[V:2] d8B4 | 
[V:3] z12 | 
[V:4] D,8E,4 | 
[V:1] A8A4 | 
[V:2] A8A4 | 
[V:3] z12 | 
[V:4] F,8F,4 | 
[V:1] A8A4 | 
[V:2] A8A4 | 
[V:3] c8d4 | 
[V:4] F,8F,4 | 
[V:1] G8E4- | 
[V:2] c8G4 | 
[V:3] e8e4 | 
[V:4] C,8C,4- | 
[V:1] E4G4G4 | 
[V:2] c6B2c4 | 
[V:3] e8e4 | 
[V:4] C,4C,8 | 
[V:1] F8D4 | 
[V:2] A8B4 | 
[V:3] d8B4- | 
[V:4] D,8G,4 | 
[V:1] E4F8 | 
[V:2] G4A6B2 | 
[V:3] B4d4d4 | 
[V:4] E,4D,8 | 
[V:1] E6F2G4 | 
[V:2] c2d2e8 | 
[V:3] c8B4 | 
[V:4] A,6G,2E,4 | 
[V:1] F6E2D4 | 
[V:2] c4d8 | 
[V:3] A4B8 | 
[V:4] F,4D,8 | 
[V:1] E8E4 | 
[V:2] G4z4G4 | 
[V:3] c4B4c4 | 
[V:4] C,4E,8 | 
[V:1] F6E2F4 | 
[V:2] A8A4 | 
[V:3] d6e2d4- | 
[V:4] D,6C,2D,4 | 
[V:1] G8G4 | 
[V:2] G8E4 | 
[V:3] d4c6B2 | 
[V:4] G,,4C,8 | 
[V:1] F6E2D4 | 
[V:2] F4D8 | 
[V:3] A4B8 | 
[V:4] D,6C,2B,,4 | 
[V:1] E8E4 | 
[V:2] A4z4G4 | 
[V:3] c4B4c4 | 
[V:4] A,,4E,8 | 
[V:1] F6E2F4 | 
[V:2] A8A4 | 
[V:3] d6e2d4- | 
[V:4] D,6C,2D,4 | 
[V:1] G4E6F2 | 
[V:2] G8c4 | 
[V:3] d4c6B2 | 
[V:4] G,,4C,6D,2 | 
[V:1] A8^G4 | 
[V:2] d4e8 | 
[V:3] A4B8 | 
[V:4] F,4E,8 | 
[V:1] A12 | 
[V:2] c12- | 
[V:3] A12- | 
[V:4] A,,8z4 | 
[V:1] z12 | 
[V:2] c12 | 
[V:3] A12 | 
[V:4] F,8G,4 | 
[V:1] F8G4 | 
[V:2] z12 | 
[V:3] z12 | 
[V:4] A,8G,4 | 
[V:1] A8G4 | 
[V:2] F8G4 | 
[V:3] z12 | 
[V:4] F,4D,4E,4 | 
[V:1] F4A4G4 | 
[V:2] A6B2c4 | 
[V:3] F8G4 | 
[V:4] D,4F,4E,4 | 
[V:1] F4E4F4 | 
[V:2] d8d4 | 
[V:3] A8A4 | 
[V:4] D,8D,4 | 
[V:1] E8z4 | 
[V:2] c8A4 | 
[V:3] A8A4 | 
[V:4] A,,8A,,4 | 
[V:1] G8G4 | 
[V:2] B8B4 | 
[V:3] G8E4- | 
[V:4] E,8E,4 | 
[V:1] E8E4 | 
[V:2] c6d2e4 | 
[V:3] E4G4G4 | 
[V:4] C,8C,4 | 
[V:1] F6E2C4 | 
[V:2] A8A4 | 
[V:3] F8E4 | 
[V:4] D,8A,,4 | 
[V:1] D4C6C2 | 
[V:2] G4A8 | 
[V:3] D4E8 | 
[V:4] B,,4A,,8 | 
[V:1] D4E4C4 | 
[V:2] A4c8 | 
[V:3] F4E4F4 | 
[V:4] D,4C,4A,,4 | 
[V:1] D4E6D2 | 
[V:2] B3AG2F2E4- | 
[V:3] G6A2G4- | 
[V:4] G,,4C,8 | 
[V:1] C2B,2A,6B,2 | 
[V:2] E4A4F4 | 
[V:3] G4F6E2 | 
[V:4] z4D,8 | 
[V:1] D8C4 | 
[V:2] G4A8 | 
[V:3] D4E8 | 
[V:4] B,,4A,,8 | 
[V:1] D4E4C4 | 
[V:2] A4c8 | 
[V:3] F4E4F4 | 
[V:4] D,4C,4A,,4 | 
[V:1] D4E6D2 | 
[V:2] B3AG2F2E4- | 
[V:3] G6A2G4- | 
[V:4] G,,4C,8 | 
[V:1] C2B,2A,6B,2 | 
[V:2] E4A4F4 | 
[V:3] G4F6E2 | 
[V:4] z4D,8 | 
[V:1] D8^C4 | 
[V:2] G4A8 | 
[V:3] D4E8 | 
[V:4] B,,4A,,8 | 
[V:1] D12- | 
[V:2] A4_B6A2 | 
[V:3] D12- | 
[V:4] D,12- | 
[V:1] D12 |]  
[V:2] A12 |]  
[V:3] D12 |]  
[V:4] D,12 |]  



